X:099 
T:John Doherty's Reel (2) 
B:CRE3.177	(Ril SheÃÂÃÂÃÂÃÂ¡in UÃÂÃÂÃÂÃÂ­ Dhochartaigh 2)
F:file ID: cre.3/099john_d2
R:reel
L:1/8
Q:180
M:C
K:Am
EAAB cABG|EAAG EGEC|EAAB cABc|1 d2ge dcAG:|\
[2 d2ge dBAa||
gece AcGe|gceg agea|ecc2 AcGE|GAcd edd2|
gcc2 AcGc|gecg aged|c2ec gcec|edce dcAG||

%%%

